build/assets/images/svg/food/fish/file_i_steyki_ryby.svg

<svg width="28" height="28" viewBox="0 0 28 28" fill="none" xmlns="http://www.w3.org/2000/svg">
<path fill-rule="evenodd" clip-rule="evenodd" d="M2.78531 8.29971C4.5154 6.50458 7.50596 4.78293 12.541 4.862C16.0394 4.91767 19.1621 5.93836 21.4 6.94798C22.5206 7.45354 23.425 7.95883 24.0506 8.3448C24.3632 8.53764 24.6083 8.70205 24.7777 8.8233C24.8276 8.85903 24.8724 8.89212 24.9114 8.92194H25.2272V10.1954L25.2237 10.1954V12.9045C26.4232 13.3942 27.1124 14.3887 27.4921 15.2812C27.7255 15.8301 27.8509 16.3575 27.9134 16.7456C27.9447 16.9396 27.9612 17.1049 27.9668 17.2267C27.9694 17.2846 27.9703 17.346 27.9661 17.4004C27.9659 17.4034 27.9656 17.4076 27.9651 17.4125C27.9657 17.5435 27.9663 17.7251 27.9667 17.9356C27.9676 18.3675 27.9676 18.9223 27.9641 19.411C27.9617 19.7492 27.8665 20.0359 27.6911 20.2612C27.5197 20.4815 27.3001 20.6066 27.1069 20.6775C26.9151 20.7478 26.732 20.7713 26.6031 20.7788C26.5372 20.7826 26.4813 20.7824 26.4403 20.7812C26.4288 20.7808 26.4183 20.7804 26.409 20.7799L26.2594 20.7888C26.1422 20.7957 25.971 20.806 25.7556 20.819C25.3248 20.8451 24.7168 20.8823 24.0084 20.9271C22.5912 21.0168 20.7734 21.1365 19.1681 21.257C17.6115 21.3722 16.5374 21.6586 15.4772 21.9946C15.2713 22.0598 15.0644 22.1275 14.8536 22.1965C13.9769 22.4832 13.0325 22.7922 11.8101 23.0404C8.15655 23.7827 5.53854 23.1434 3.21767 21.9447C1.95199 21.2899 1.27003 20.4051 0.908468 19.6696C0.728976 19.3045 0.629793 18.9793 0.575156 18.7414C0.547805 18.6223 0.531492 18.5246 0.521849 18.4539C0.517025 18.4185 0.51386 18.3898 0.511816 18.3686L0.50952 18.3423L0.508875 18.3335L0.508656 18.3302L0.50857 18.3288C0.508553 18.3285 0.508498 18.3276 1.00762 18.2979L0.508498 18.3276L0.507617 18.3128V13.5939H0.508727C0.465088 13.1421 0.48651 12.7541 0.522802 12.465C0.544054 12.2957 0.570527 12.1594 0.592492 12.0628C0.603482 12.0144 0.613371 11.9759 0.620956 11.948C0.624707 11.9343 0.627899 11.9231 0.630387 11.9146L0.633612 11.9019C0.637904 11.8853 0.644039 11.8624 0.652224 11.8336C0.668591 11.776 0.693175 11.6946 0.727635 11.5929C0.796524 11.3896 0.905085 11.1046 1.0667 10.7656C1.38975 10.0879 1.92658 9.19072 2.78531 8.29971ZM1.5991 12.1627L1.59517 12.1794L1.5903 12.1949C1.59022 12.1952 1.59011 12.1955 1.58998 12.196L1.58582 12.2108C1.58176 12.2257 1.57532 12.2505 1.56762 12.2844C1.55219 12.3523 1.53177 12.4561 1.51501 12.5896C1.48144 12.8571 1.46307 13.2395 1.52679 13.6881C1.52951 13.7072 1.53237 13.7265 1.5354 13.7459L7.24402 6.63586C5.54342 7.24122 4.34473 8.12271 3.50534 8.99366C2.73481 9.79315 2.25533 10.5961 1.96938 11.1959C1.82649 11.4956 1.73238 11.7437 1.67473 11.9139C1.64591 11.9989 1.62625 12.0643 1.6142 12.1067C1.60817 12.128 1.60405 12.1434 1.60163 12.1528L1.5991 12.1627C1.59912 12.1626 1.59905 12.1629 1.5991 12.1627ZM8.89462 6.17731L1.88819 14.9037C2.17671 15.5246 2.65937 16.1898 3.45388 16.8216C3.79201 17.0904 4.14641 17.333 4.51183 17.5494L7.78619 13.2892C7.95447 13.0703 8.26837 13.0292 8.48732 13.1975C8.70626 13.3658 8.74733 13.6797 8.57905 13.8986L5.41109 18.0203C6.95001 18.7275 8.60081 19.0077 10.0145 18.8725L14.1123 13.1182C13.9646 13.0811 13.7975 13.0267 13.6279 12.9466C13.3617 12.821 13.0744 12.6247 12.8541 12.3188C12.6299 12.0073 12.4965 11.6114 12.4987 11.1277C12.5009 10.6485 12.6311 10.2573 12.8512 9.95019C13.068 9.64759 13.3502 9.45676 13.6124 9.33689C13.8733 9.21765 14.1271 9.16247 14.3112 9.13623C14.4044 9.12293 14.4831 9.11659 14.5404 9.11359C14.5691 9.11208 14.5926 9.1114 14.6101 9.11111L14.6319 9.11091L14.6393 9.11094L14.6421 9.11096L14.6432 9.11098L17.4811 9.13361L18.9972 7.06409C17.6464 6.59279 16.107 6.19229 14.4495 5.99359L11.2953 10.1007C11.1271 10.3198 10.8132 10.3609 10.5942 10.1927C10.3752 10.0246 10.334 9.71066 10.5022 9.49165L13.2689 5.88901C13.0231 5.87503 12.7752 5.86585 12.5253 5.86187M19.9706 7.4275L18.7136 9.14345L23.5024 9.18165C22.9106 8.81781 22.0527 8.33949 20.9888 7.85951C20.6672 7.71443 20.3273 7.56942 19.9706 7.4275ZM24.2237 10.1874L14.6327 10.1109L14.6266 10.111C14.6203 10.1111 14.6088 10.1114 14.5928 10.1122C14.5608 10.1139 14.5121 10.1177 14.4523 10.1262C14.3303 10.1436 14.176 10.1788 14.0282 10.2464C13.8818 10.3133 13.755 10.4057 13.664 10.5327C13.5763 10.6551 13.5 10.8396 13.4987 11.1322C13.4974 11.4202 13.5736 11.6066 13.6657 11.7345C13.7617 11.8679 13.8975 11.9681 14.0548 12.0424C14.2128 12.117 14.3774 12.1581 14.507 12.1799C14.5705 12.1906 14.6225 12.1961 14.6569 12.1989C14.674 12.2003 14.6864 12.201 14.6935 12.2013L14.696 12.2014L14.7611 12.2011C14.8097 12.201 14.8813 12.2008 14.9734 12.2007C15.1577 12.2006 15.424 12.201 15.7531 12.203C16.4111 12.207 17.3207 12.2175 18.3271 12.2432C20.2885 12.2932 22.6494 12.4019 24.2237 12.6403V10.1874ZM15.281 13.201C15.4166 13.2013 15.5729 13.202 15.747 13.203C16.4004 13.207 17.3033 13.2173 18.3016 13.2428C18.8653 13.2572 19.4569 13.2764 20.0493 13.3018L17.1832 17.2905C16.2276 17.4543 15.2216 17.6964 14.256 17.9395C14.0272 17.9971 13.8009 18.0547 13.578 18.1115C12.8042 18.3084 12.0704 18.4952 11.4095 18.6375L15.281 13.201ZM18.5405 17.1153C18.6042 17.1103 18.6675 17.106 18.7303 17.1023C20.0457 17.0247 22.2086 16.9581 24.0479 16.9182C24.9685 16.8983 25.811 16.885 26.4292 16.8805C26.614 16.8791 26.7797 16.8785 26.9219 16.8788C26.868 16.5549 26.762 16.1198 26.5718 15.6726C26.1804 14.7525 25.4682 13.8494 24.166 13.6433C23.3709 13.5174 22.3347 13.4269 21.2375 13.3619L18.5405 17.1153ZM26.9666 17.8789C26.8196 17.8784 26.6413 17.8789 26.4366 17.8804C25.8248 17.8849 24.9873 17.8981 24.0695 17.918C22.232 17.9578 20.0847 18.0242 18.7891 18.1006C17.5376 18.1744 16.0188 18.5268 14.5002 18.9092C14.2792 18.9649 14.0579 19.0213 13.8374 19.0774C12.5705 19.4002 11.333 19.7155 10.3567 19.8404C8.00317 20.1416 5.08637 19.3972 2.83152 17.6043C2.27154 17.159 1.83924 16.693 1.50762 16.2272V18.2768C1.50854 18.2859 1.51012 18.3 1.51268 18.3187C1.51861 18.3622 1.52972 18.4302 1.54978 18.5176C1.58997 18.6926 1.66557 18.943 1.80589 19.2284C2.08393 19.794 2.62195 20.5105 3.67656 21.0562C5.81468 22.1605 8.20165 22.7531 11.6111 22.0605C12.7716 21.8248 13.6527 21.5368 14.5244 21.2518C14.7405 21.1812 14.956 21.1107 15.1751 21.0413C16.2796 20.6913 17.4337 20.3826 19.0937 20.2598C20.7047 20.1389 22.5267 20.0189 23.9452 19.9291C24.6547 19.8842 25.2637 19.8469 25.6952 19.8208C25.911 19.8078 26.0825 19.7975 26.2001 19.7905L26.3806 19.7798L26.4202 19.7775L26.4545 19.7809C26.4567 19.781 26.4628 19.7814 26.4709 19.7816C26.4871 19.7821 26.5131 19.7823 26.5453 19.7804C26.6129 19.7765 26.6919 19.7646 26.7626 19.7386C26.8319 19.7132 26.8752 19.6813 26.902 19.647C26.9248 19.6177 26.9631 19.5522 26.9641 19.4038C26.9676 18.9196 26.9676 18.3684 26.9667 17.9376C26.9667 17.9178 26.9667 17.8982 26.9666 17.8789ZM1.50654 18.2651C1.5065 18.2646 1.50651 18.2647 1.50654 18.2651V18.2651ZM8.89462 6.17731C9.94853 5.95921 11.152 5.84032 12.5253 5.86187L8.89462 6.17731ZM9.57227 11.7697C9.59711 11.7697 9.61726 11.7496 9.61726 11.7247C9.61726 11.6999 9.59711 11.6797 9.57227 11.6797C9.54741 11.6797 9.52726 11.6999 9.52726 11.7247C9.52726 11.7496 9.54741 11.7697 9.57227 11.7697ZM8.61726 11.7247C8.61726 11.1973 9.04484 10.7697 9.57227 10.7697C10.0997 10.7697 10.5273 11.1973 10.5273 11.7247C10.5273 12.2522 10.0997 12.6797 9.57227 12.6797C9.04485 12.6797 8.61726 12.2522 8.61726 11.7247Z" fill="#203686"/>
</svg>

<svg width="28" height="28" fill="none" xmlns="http://www.w3.org/2000/svg"><path fill-rule="evenodd" clip-rule="evenodd" d="M2.785 8.3c1.73-1.795 4.721-3.517 9.756-3.438 3.498.056 6.621 1.076 8.859 2.086 1.12.506 2.025 1.01 2.65 1.397a13.102 13.102 0 01.861.577h.316v1.273h-.003v2.71c1.2.49 1.888 1.484 2.268 2.376a6.42 6.42 0 01.421 1.465c.032.194.048.359.054.48a1.477 1.477 0 01-.002.187 203.146 203.146 0 010 1.998 1.369 1.369 0 01-.274.85c-.171.22-.39.346-.584.416a1.779 1.779 0 01-.698.103l-.15.009a389.974 389.974 0 00-2.25.138c-1.418.09-3.236.21-4.84.33-1.558.115-2.632.402-3.692.738-.206.065-.413.133-.623.201-.877.287-1.821.596-3.044.844-3.653.743-6.271.103-8.592-1.095-1.266-.655-1.948-1.54-2.31-2.275a4.3 4.3 0 01-.333-.929 3.264 3.264 0 01-.063-.372l-.002-.027-.001-.008v-.005l.499-.031-.5.03v-4.735a5.14 5.14 0 01.015-1.128 4.164 4.164 0 01.107-.55l.004-.013.018-.068c.017-.058.041-.14.076-.241.069-.203.177-.488.339-.827A9.409 9.409 0 012.785 8.3zM1.6 12.163l-.004.016-.005.016v.001l-.004.015-.018.073a3.173 3.173 0 00-.053.306 4.173 4.173 0 00.02 1.156l5.709-7.11c-1.7.605-2.9 1.487-3.739 2.358a8.41 8.41 0 00-1.536 2.202 6.621 6.621 0 00-.355.91l-.012.047-.003.01zm7.296-5.986l-7.007 8.727c.289.62.771 1.286 1.566 1.918.338.268.692.511 1.058.727l3.274-4.26a.5.5 0 01.793.61L5.411 18.02c1.539.707 3.19.988 4.604.852l4.097-5.754a2.65 2.65 0 01-.484-.171 1.984 1.984 0 01-.774-.628c-.224-.312-.357-.708-.355-1.191.002-.48.132-.87.352-1.178a1.89 1.89 0 01.761-.613 2.57 2.57 0 01.998-.226h.033l2.838.023 1.516-2.07a21.71 21.71 0 00-4.547-1.07L11.295 10.1a.5.5 0 11-.793-.61l2.768-3.6a18.198 18.198 0 00-.744-.027m7.446 1.566l-1.257 1.715 4.788.039A22.65 22.65 0 0020.99 7.86a24.53 24.53 0 00-1.018-.433zm4.253 2.76l-9.591-.077h-.006l-.034.001a1.62 1.62 0 00-.565.134.893.893 0 00-.364.287c-.088.122-.164.307-.165.6-.002.287.075.474.167.602a.988.988 0 00.389.307 1.762 1.762 0 00.639.16h.067l.212-.001a134.484 134.484 0 013.354.043c1.962.05 4.322.158 5.897.396v-2.453zM15.28 13.2a134.843 134.843 0 013.02.042c.564.014 1.156.033 1.748.059l-2.866 3.989c-.955.163-1.961.405-2.927.648l-.678.172c-.774.197-1.508.384-2.168.526L15.28 13.2zm3.26 3.914l.19-.013c1.315-.077 3.478-.144 5.317-.184a176.561 176.561 0 012.874-.04 5.418 5.418 0 00-.35-1.205c-.392-.92-1.104-1.824-2.406-2.03-.795-.126-1.831-.216-2.928-.281l-2.697 3.753zm8.426.764l-.53.001c-.612.005-1.45.018-2.367.038-1.838.04-3.985.106-5.28.183-1.252.073-2.771.426-4.29.808l-.663.168c-1.267.323-2.504.638-3.48.763-2.354.302-5.27-.443-7.525-2.236a6.814 6.814 0 01-1.324-1.377v2.05a2.27 2.27 0 00.042.24 3.3 3.3 0 00.256.711c.278.566.816 1.282 1.87 1.828 2.139 1.104 4.526 1.697 7.935 1.005 1.16-.236 2.042-.524 2.913-.81l.651-.21c1.105-.35 2.259-.658 3.919-.781a439.05 439.05 0 016.601-.44l.505-.03.18-.01.04-.003.034.004h.017a.84.84 0 00.292-.042.302.302 0 00.139-.092c.023-.03.061-.095.062-.243.004-.484.004-1.036.003-1.466v-.06zm-25.46.386zM8.895 6.177c1.054-.218 2.257-.337 3.63-.315l-3.63.315zm.677 5.593a.045.045 0 100-.09.045.045 0 000 .09zm-.955-.045a.955.955 0 111.91 0 .955.955 0 01-1.91 0z" fill="#203686"/></svg>
